X:192
T: O LIEB SO LANG DU LIEBEN KANNST
N: B0677
O: Europa, Mitteleuropa, Deutschland
R: Moral - Lied, Vergaenglichkeit
M: 4/4
L: 1/16
K: Eb
B4 | G6F2E4F4 | D6C2B,4
C2D2 | E4F4G4c4 | c4B8=A4 | B8z4
B4 | e6B2B4=B4 | c6G2G4
G4 | F4G4A4c4 | B8A8 | G12
G4 | G3Gd8G4 | e3dc8
G4 | A3Ac8A4 | G3GG8
G4 | F3GF8B4 | A3GG8
B4 | e12G4 | c12F2G2 | A8D8 | E12

